X: 10
T:Darby Carey (#190)
M:9/8
L:1/8
S:O'Farrell's Pocket Companion 1804-10
K:D
d2 B d2 B AFD|d2 B d2 e f3|d2 B d2 B AFD|EFE EFA B3:|
|d2 e fdB BAF|d2 e fdB f3|d2 e fdB BAF|AFE EFA B3|
d2 e fdB BAF|d2 e fdB f3|g2 e fdB BAF|AFE EFA B3||

